build/img/about/play.svg

<svg width="125" height="125" viewBox="0 0 125 125" fill="none" xmlns="http://www.w3.org/2000/svg">
<circle cx="62.5" cy="62.5" r="62.5" transform="rotate(-90 62.5 62.5)" fill="#E9CF49"/>
<path d="M65.9258 10.6742L64.4142 23.2664L65.9849 23.455L66.5244 18.9609L69.4303 19.3097C71.7952 19.5936 73.6795 18.129 73.9665 15.738C74.2525 13.3557 72.7848 11.4976 70.4199 11.2137L65.9258 10.6742ZM67.329 12.259L69.8422 12.5607C71.6485 12.7775 72.5522 13.8774 72.3521 15.5442C72.151 17.2197 71.0029 18.0821 69.2052 17.8663L66.692 17.5646L67.329 12.259Z" fill="#1F1F1F"/>
<path d="M81.574 25.9224L75.8387 23.7949L79.7544 13.239L78.2711 12.6888L73.8602 24.5796L81.0788 27.2574L81.574 25.9224Z" fill="#1F1F1F"/>
<path d="M89.5872 33.1656L90.9585 34.1031L94.2559 20.9943L92.9644 20.1115L81.947 27.9426L83.3183 28.8801L86.4189 26.6027L90.5836 29.4498L89.5872 33.1656ZM92.5021 22.127L92.5457 22.1568L90.958 28.0768L87.5623 25.7555L92.5021 22.127Z" fill="#1F1F1F"/>
<path d="M93.5361 37.3022L97.6915 33.7635L106.109 32.5053L104.941 31.1336L98.36 32.1898L98.3258 32.1496L100.417 25.8206L99.2485 24.4489L96.6658 32.559L92.5104 36.0978L93.5361 37.3022Z" fill="#1F1F1F"/>
<path d="M72 63L57 71.6603L57 54.3397L72 63Z" fill="#1F1F1F"/>
</svg>

<svg width="125" height="125" fill="none" xmlns="http://www.w3.org/2000/svg"><circle cx="62.5" cy="62.5" r="62.5" transform="rotate(-90 62.5 62.5)" fill="#E9CF49"/><path d="M65.926 10.674l-1.512 12.592 1.57.189.54-4.494 2.906.349c2.365.284 4.25-1.181 4.536-3.572.287-2.382-1.181-4.24-3.546-4.524l-4.494-.54zm1.403 1.585l2.513.302c1.806.216 2.71 1.316 2.51 2.983-.201 1.676-1.35 2.538-3.147 2.322l-2.513-.301.637-5.306zM81.574 25.922l-5.735-2.127 3.915-10.556-1.483-.55-4.41 11.89 7.218 2.678.495-1.335zM89.587 33.166l1.371.937 3.298-13.109-1.292-.883-11.017 7.832 1.371.937 3.1-2.277 4.166 2.847-.997 3.716zm2.915-11.039l.044.03-1.588 5.92-3.396-2.322 4.94-3.628zM93.536 37.302l4.156-3.538 8.417-1.259-1.168-1.371-6.581 1.056-.034-.04 2.091-6.33-1.168-1.371-2.583 8.11-4.156 3.539 1.026 1.204zM72 63l-15 8.66V54.34L72 63z" fill="#1F1F1F"/></svg>
